X:1
T:Judas mercator pessimus
T:Ingegneri edit BMarble
T:Judas mercator pessimus
T:Copyright © 2016 by The Choral Public Domain Library. Edition may be freely distributed, duplicated, performed or recorded.
T:Copyright © 2016 by The Choral Public Domain Library. Edition may be freely distributed, duplicated, performed or recorded.
T:Copyright © 2016 by The Choral Public Domain Library. Edition may be freely distributed, duplicated, performed or recorded.
T:Copyright © 2016 by The Choral Public Domain Library. Edition may be freely distributed, duplicated, performed or recorded.
C:Ingegneri
C:edit BMarble
Z:Copyright © 2016 by The Choral Public Domain Library. Edition may be freely distributed, duplicated, performed or recorded.
%%score [ 1 2 3 4 ]
L:1/8
Q:1/4=92
M:4/4
K:C
V:1 treble nm="Soprano" snm="S."
V:2 treble nm="Alto" snm="A."
V:3 treble-8 transpose=-12 nm="Tenor" snm="T."
V:4 bass nm="Bass" snm="B."
V:1
"^5th Responsory for Holy Thursday:" E4 E2 E2 | F2 E2 G4- | G2 G2 G4 | z2 G4 G2 | G2 F3 F E2 | %5
w: Ju- das mer-|ca- tor pes-|* si- mus|o- scu-|lo pe- ti- it|
 A6 A2 | ^G4 z2 G2- | G2 ^G2 A2 F2- | F2 E2 C2 D2 | E2 E2 E2 F2- | F2 E2 E4 | E4 D3 D | ^C8 || %13
w: Do- mi-|num: il-|* li ut a-|* gnus in- no-|cens non ne- ga-|* vit Ju-|dae o- scu-|lum:|
S A4 A2 A2 | A2 A2 A4 | E4 G2 F2- | F2 F4 E2 | A4 G4 | F4 E4 | E8!fine! |] B4 B2 B2 | c2 B2 A4 | %22
w: De- na- ri-|o- rum nu-|me- ro Je-|* sum Ju-|dae- is|tra- di-|dit.|Me- li- us|il- li e-|
 ^G4 z2 B2 | B4 c2 A2- | A2 B2 c4 | B8!D.S.! | A8 |] %27
w: rit si|na- tus non|_ fu- is-||set.|
V:2
 B,4 B,2 B,2 | D2 B,2 E4- | E2 D2 D4 | z2 D4 D2 | D2 D3 D B,2 | (A,3 B, C2) D2 | E4 z2 E2- | %7
w: Ju- das mer-|ca- tor pes-|* si- mus|o- scu-|lo pe- ti- it|Do- * * mi-|num: il-|
 E2 E2 E2 D2- | D2 G,2 A,3 A, | B,2 B,2 B,2 D2- | D2 C2 C4 | C2 A,4 ^G,2 | A,8 || E4 E2 E2 | %14
w: * li ut a-|* gnus in- no|cens non ne- ga-|* vit Ju-|dae o- scu-|lum:|De- na- ri-|
 E2 F2 E4- | E2 C2 D2 D2- | D2 D4 G2- | G2 F4 E2 | (D4 C3) C | B,8 |] ^G4 G2 G2 | A2 B2 c4 | %22
w: o- rum nu-|* me- ro Je-|* sum Ju-|* dae- is|tra- * di-|dit.|Me- li- us|il- li e-|
 B4 z2 ^G2 | ^G4 A2 ^F2- | (FE/^F/ =G2) E2 A2- | (A2 ^G^F G4) | A8 |] %27
w: rit si|na- tus non|_ _ _ _ fu- is-||set.|
V:3
 G4 G2 G2 | A2 G2 c4- | c2 B2 B4 | z2 B4 B2 | B2 A3 A G2 | c6 A2 | B4 z2 B2- | B2 B2 c2 A2 | %8
w: Ju- das mer-|ca- tor pes-|* si- mus|o- scu-|lo pe- ti- it|Do- mi-|num: il-|* li ut a-|
 A2 c4 A2 | G2 G2 G2 A2- | A2 A2 G4- | G2 E2 B3 B | E8 || =c4 c2 c2 | c2 c2 c4- | c2 A2 B2 A2- | %16
w: gnus in- no-|cens non ne- ga-|* vit Ju-|* dae o- scu-|lum:|De- na- ri-|o- rum nu-|* me- ro Je-|
 A2 A2 A2 c2- | c2 c2 (c3 B | A6) A2 | ^G8 |] e4 e2 e2 | A2 ^G2 A4 | e4 z2 e2 | e4 A2 d2- | %24
w: * sum Ju- dae-|* is tra- *|* di-|dit.|Me- li- us|il- li e-|rit si|na- tus non|
 d2 G2 (ABcd | e8) | A8 |] %27
w: _ fu- is- * * *||set.|
V:4
 E,4 E,2 E,2 | D,2 E,2 C,4- | C,2 G,,2 G,,4 | z2 G,4 G,2 | G,2 D,3 D, E,2 | F,6 F,2 | E,4 z2 E,2- | %7
w: Ju- das mer-|ca- tor pes-|* si- mus|o- scu-|lo pe- ti- it|Do- mi-|num: il-|
 E,2 E,2 A,,2 D,2- | D,2 C,2 F,3 F, | E,2 E,2 E,2 D,2- | D,2 A,,2 C,4 | C,4 B,,3 B,, | A,,8 || %13
w: * li ut a-|* gnus in- no|cens non ne- ga-|* vit Ju-|dae o- scu-|lum:|
 A,4 A,2 A,2 | A,2 F,2 A,4- | A,2 A,2 G,2 D,2- | D,2 D,4 E,2 | F,4 C,4 | (D,4 A,,3) A,, | E,8 |] %20
w: De- na- ri-|o- rum nu-|* me- ro Je-|* sum Ju-|dae- is|tra- * di-|dit.|
 z8 | z8 | z8 | z8 | z8 | z8 | z8 |] %27
w: |||||||

